icons/desktop/16/svg/heart-16.svg

<svg width="16" height="16" viewBox="0 0 16 16" fill="none" xmlns="http://www.w3.org/2000/svg">
<g clip-path="url(#clip0_8069_32645)">
<path d="M4.50878 7.40286C4.82476 7.13514 5.29948 7.17788 5.56542 7.49173C5.82642 7.80173 6.00568 7.99157 6.01268 7.99857C6.23766 8.23455 6.48769 8.48845 6.76366 8.75443C6.94356 8.92733 7.13309 9.10476 7.33397 9.28665C7.64197 9.56365 7.66764 10.0382 7.38964 10.3462C7.24164 10.5102 7.03601 10.5943 6.83202 10.5943L6.833 10.5933C6.65411 10.5932 6.47395 10.5299 6.33104 10.3999C6.1171 10.208 5.91553 10.0184 5.72557 9.83646C5.43167 9.55355 5.16471 9.2837 4.92577 9.03177C4.92577 9.03177 4.71993 8.81548 4.41893 8.46048C4.15234 8.14348 4.19292 7.67074 4.50878 7.40286Z" fill="black"/>
<path fill-rule="evenodd" clip-rule="evenodd" d="M4.6494 1.00833C5.94135 1.08837 7.13511 1.78307 7.99608 2.93802C8.83108 1.81902 9.9795 1.1407 11.2285 1.0347C12.5834 0.913781 13.9311 1.50706 14.916 2.65091C15.701 3.56191 16.0793 4.71198 15.9873 5.89798C15.9873 5.91686 15.9873 5.93574 15.9853 5.95462C15.8203 8.14062 13.3289 10.8197 13.0459 11.1187C12.7829 11.3947 12.4872 11.6954 12.1572 12.0093C11.4173 12.7142 10.5832 13.3927 9.60839 14.0835L9.58885 14.0982C9.11195 14.436 8.55293 14.604 7.9951 14.604L7.99608 14.6021C7.44116 14.602 6.88601 14.436 6.41307 14.1021C5.6121 13.5391 4.94035 13.0098 4.35936 12.4878C3.87636 12.0518 3.40214 11.5917 2.95214 11.1177C2.66732 10.8178 0.177651 8.13821 0.0126831 5.95365C-0.0522218 5.08237 0.159305 4.34804 0.184558 4.26614C0.344536 3.73822 0.600374 3.24611 0.9453 2.80716C1.9093 1.57816 3.2544 0.923333 4.6494 1.00833ZM4.55468 2.50443C3.65468 2.43543 2.78901 2.88394 2.12401 3.73294C1.8951 4.02487 1.72511 4.35084 1.61913 4.69974C1.61913 4.70274 1.46278 5.24332 1.50878 5.84232C1.61412 7.2451 3.37088 9.38121 4.03905 10.0855C4.462 10.5314 4.90835 10.9656 5.36229 11.3736C5.89826 11.8555 6.52442 12.3475 7.27635 12.8765C7.70835 13.1825 8.28869 13.1805 8.72069 12.8745L8.74022 12.8599C9.65622 12.2109 10.435 11.5764 11.123 10.9214C11.434 10.6254 11.711 10.3455 11.958 10.0845C12.614 9.39247 14.3224 7.31756 14.4824 5.91458C14.4824 5.89277 14.4834 5.86999 14.4853 5.8472C14.5653 5.0392 14.3143 4.25045 13.7783 3.62845C13.1024 2.84466 12.2483 2.45793 11.3545 2.52786C10.4167 2.60885 9.54674 3.20771 8.96874 4.17239C8.52374 4.9124 7.44505 4.88164 7.03905 4.20364C6.42712 3.18393 5.52146 2.56354 4.55468 2.50443Z" fill="black"/>
</g>
<defs>
<clipPath id="clip0_8069_32645">
<rect width="16" height="16" fill="white"/>
</clipPath>
</defs>
</svg>

<!-- This Source Code Form is subject to the terms of the Mozilla Public
   - License, v. 2.0. If a copy of the MPL was not distributed with this
   - file, You can obtain one at http://mozilla.org/MPL/2.0/. -->
<svg xmlns="http://www.w3.org/2000/svg" width="16" height="16" fill="context-fill" fill-opacity="context-fill-opacity" viewBox="0 0 16 16">
    <g clip-path="url(#clip0_8069_32645)">
        <path d="M4.509 7.403a.75.75 0 0 1 1.056.089c.261.31.44.5.448.507a25 25 0 0 0 1.321 1.288.75.75 0 0 1-.502 1.307h.001a.74.74 0 0 1-.502-.194 25 25 0 0 1-1.405-1.368s-.206-.217-.507-.572a.75.75 0 0 1 .09-1.057" />
        <path fill-rule="evenodd" d="M4.65 1.008c1.291.08 2.485.775 3.346 1.93.835-1.119 1.983-1.797 3.233-1.903 1.354-.121 2.702.472 3.687 1.616a4.41 4.41 0 0 1 1.071 3.247q0 .029-.002.057c-.165 2.186-2.656 4.865-2.94 5.164-.262.276-.558.576-.888.89a22.6 22.6 0 0 1-2.549 2.075l-.02.014a2.76 2.76 0 0 1-1.593.506l.001-.002c-.555 0-1.11-.166-1.583-.5a22 22 0 0 1-2.054-1.614 26 26 0 0 1-1.407-1.37c-.285-.3-2.774-2.98-2.94-5.164a5 5 0 0 1 .173-1.688c.16-.528.415-1.02.76-1.459C1.91 1.578 3.255.923 4.65 1.008m-.095 1.496c-.9-.069-1.766.38-2.431 1.229a3 3 0 0 0-.505.967c0 .003-.156.543-.11 1.142.105 1.403 1.862 3.54 2.53 4.244.423.445.87.88 1.323 1.288.536.481 1.162.973 1.914 1.502a1.25 1.25 0 0 0 1.445-.002l.02-.014a21 21 0 0 0 2.382-1.939q.466-.444.835-.836c.656-.693 2.364-2.767 2.524-4.17l.003-.068a2.93 2.93 0 0 0-.707-2.219c-.676-.783-1.53-1.17-2.424-1.1-.937.08-1.807.68-2.385 1.644-.445.74-1.524.71-1.93.032-.612-1.02-1.518-1.64-2.484-1.7" clip-rule="evenodd" />
    </g>
</svg>
